.local/share/icons/Gruvbox-Plus-Dark/panel/22/megawarning.svg

<svg xmlns="http://www.w3.org/2000/svg" width="22" height="22" version="1.1">
 <defs>
  <style id="current-color-scheme" type="text/css">
   .ColorScheme-Text { color:#ebdbb2; } .ColorScheme-Highlight { color:#458588; }
  </style>
 </defs>
 <g style="fill:currentColor" class="ColorScheme-Text">
  <path style="fill:currentColor" class="ColorScheme-Text" d="M 11 3 C 6.5822865 3 3 6.578744 3 11 C 3 15.417713 6.5787438 19 11 19 C 11.326401 19 11.646718 18.975469 11.962891 18.9375 A 5 5 0 0 1 11 16 A 5 5 0 0 1 13 12.007812 L 13 11.5 L 12 13 L 10 13 L 9 11.5 L 9 14 L 7 14 L 7 8 L 9 8 L 11 11 L 13 8 L 15 8 L 15 11.105469 A 5 5 0 0 1 16 11 A 5 5 0 0 1 18.9375 11.960938 C 18.975324 11.645309 19 11.325879 19 11 C 19 6.5822866 15.421256 3 11 3 z"/>
 </g>
 <path style="fill:currentColor" class="ColorScheme-Highlight" d="M 16.279297 12.007812 C 15.510764 11.953491 14.717412 12.120931 14 12.535156 C 12.0868 13.639756 11.432609 16.0868 12.537109 18 C 13.641609 19.9131 16.0869 20.567491 18 19.462891 C 19.9132 18.358291 20.569344 15.9132 19.464844 14 C 18.774531 12.804312 17.560186 12.098349 16.279297 12.007812 z M 14.585938 13.878906 L 16 15.292969 L 17.414062 13.878906 L 18.121094 14.585938 L 16.707031 16 L 18.121094 17.414062 L 17.414062 18.121094 L 16 16.707031 L 14.585938 18.121094 L 13.878906 17.414062 L 15.292969 16 L 13.878906 14.585938 L 14.585938 13.878906 z"/>
</svg>

<svg width="22" height="22" version="1.1" xmlns="http://www.w3.org/2000/svg">
  <defs>
    <style id="current-color-scheme" type="text/css">.ColorScheme-Text { color:#ebdbb2; } .ColorScheme-Highlight { color:#458588; } .ColorScheme-NeutralText { color:#fe8019; } .ColorScheme-PositiveText { color:#689d6a; } .ColorScheme-NegativeText { color:#fb4934; }</style>
  </defs>
  <path class="ColorScheme-NeutralText" d="m16.28 12.01c-0.7685-0.05432-1.562 0.1131-2.279 0.5273-1.913 1.105-2.567 3.552-1.463 5.465s3.55 2.567 5.463 1.463c1.913-1.105 2.569-3.55 1.465-5.463-0.6903-1.196-1.905-1.902-3.186-1.992zm-1.693 1.871 1.414 1.414 1.414-1.414 0.707 0.707-1.414 1.414 1.414 1.414-0.707 0.707-1.414-1.414-1.414 1.414-0.707-0.707 1.414-1.414-1.414-1.414 0.707-0.707z" fill="currentColor"/>
  <path class="ColorScheme-Text" d="m11 3c-4.418 0-8 3.579-8 8 0 4.418 3.579 8 8 8 0.3264 0 0.6467-0.02453 0.9629-0.0625a5 5 0 0 1-0.9629-2.938 5 5 0 0 1 2-3.992v-0.5078l-1 1.5h-2l-1-1.5v2.5h-2v-6h2l2 3 2-3h2v3.105a5 5 0 0 1 1-0.1055 5 5 0 0 1 2.938 0.9609c0.03782-0.3156 0.0625-0.6351 0.0625-0.9609 0-4.418-3.579-8-8-8z" fill="currentColor"/>
</svg>
